packages/katcn/src/icons/svg/mobile.svg

<svg width="24" height="25" viewBox="0 0 24 25" fill="none" xmlns="http://www.w3.org/2000/svg">
<path d="M15.4 23.312H8.6C6.6 23.312 5 21.712 5 19.712V4.91201C5 2.91201 6.6 1.31201 8.6 1.31201H15.5C17.5 1.31201 19.1 2.91201 19.1 4.91201V19.812C19 21.712 17.4 23.312 15.4 23.312ZM8.6 3.31201C7.7 3.31201 7 4.01201 7 4.91201V19.812C7 20.612 7.7 21.312 8.6 21.312H15.5C16.4 21.312 17.1 20.612 17.1 19.712V4.91201C17 4.01201 16.3 3.31201 15.4 3.31201H8.6Z" fill="black"/>
<path d="M13.3 6.612H10.7C10.1 6.612 9.70001 6.212 9.70001 5.612C9.70001 5.012 10.1 4.612 10.7 4.612H13.4C14 4.612 14.4 5.012 14.4 5.612C14.4 6.212 13.9 6.612 13.3 6.612Z" fill="black"/>
</svg>

<svg xmlns="http://www.w3.org/2000/svg" fill="none" viewBox="0 0 24 25"><path fill="#000" d="M15.4 23.312H8.6c-2 0-3.6-1.6-3.6-3.6v-14.8c0-2 1.6-3.6 3.6-3.6h6.9c2 0 3.6 1.6 3.6 3.6v14.9c-.1 1.9-1.7 3.5-3.7 3.5m-6.8-20c-.9 0-1.6.7-1.6 1.6v14.9c0 .8.7 1.5 1.6 1.5h6.9c.9 0 1.6-.7 1.6-1.6v-14.8c-.1-.9-.8-1.6-1.7-1.6z"/><path fill="#000" d="M13.3 6.612h-2.6c-.6 0-1-.4-1-1s.4-1 1-1h2.7c.6 0 1 .4 1 1s-.5 1-1.1 1"/></svg>
